X:2028
T:Boys on the Hilltop, The
R:reel
D:Paraic MacMathuna: Hives of Honeyed Sound
D:Shaskeen: 25th Silver Jubilee Collection
Z:id:hn-reel-607
M:C|
K:Ador
~A3c BGAG|EGGF G2AG|EA~A2 BABd|egdB BAdB|
~A3c BGAG|EGGF G2AB|cA~A2 ~B3c|dBGA BAAG||
A2 (3Bcd eBdB|GBdB defg|a2fd egdB|GBdB BA~A2|
a2fd egdB|GBdB defg|a2fd edef|g2af gedB||
"variations"
~A3c B2AG|EG~G2 G2AG|EA~A2 BG (3Bcd|eBdB BAAG|
~A3c BGAG|EG~G2 G2AB|c2cA B2AB|dBGA BAAG||
A2 (3Bcd egdB|GABc defg|a2fd egdB|GBdB BA~A2|
a2fd (3efg dB|GABc defg|(3agf (3gfe fdef|gbaf gedB||


